static/logos/appsmith-wordmark-color.svg

<svg width="100" height="17" viewBox="0 0 100 17" fill="none" xmlns="http://www.w3.org/2000/svg">
<g clip-path="url(#clip0_1_3504)">
<path d="M65.1477 2.17259C64.8973 1.93057 64.7734 1.63534 64.7734 1.28436C64.7734 0.933367 64.8986 0.634331 65.1477 0.387249C65.3967 0.138899 65.6994 0.0159912 66.0518 0.0159912C66.4057 0.0159912 66.7046 0.140166 66.9472 0.387249C67.1912 0.635604 67.3125 0.93464 67.3125 1.28436C67.3125 1.63534 67.1873 1.93057 66.9383 2.17259C66.688 2.4146 66.3929 2.53498 66.0518 2.53498C65.6981 2.53498 65.3967 2.4146 65.1477 2.17259Z" fill="#2A2F3D"/>
<path d="M6.68872 13.0152C6.57888 12.8213 6.4933 12.4412 6.43328 11.8735C5.79979 12.7795 4.78824 13.2331 3.39992 13.2331C2.36411 13.2331 1.53902 12.9848 0.923418 12.4894C0.307807 11.9927 0 11.3046 0 10.4214C0 8.71719 1.20568 7.74406 3.61832 7.50332L5.04368 7.37659C5.51881 7.31578 5.85981 7.20427 6.06672 7.04082C6.27363 6.87736 6.37707 6.63281 6.37707 6.30716C6.37707 5.90803 6.24681 5.61534 5.98497 5.42781C5.72315 5.24028 5.28124 5.14651 4.65923 5.14651C3.98871 5.14651 3.50848 5.25801 3.216 5.48229C2.92352 5.7053 2.75364 6.08923 2.70384 6.63281H0.43808C0.572187 4.50535 1.98606 3.44226 4.6784 3.44226C7.29795 3.44226 8.60708 4.37864 8.60708 6.25269V11.2388C8.60708 12.061 8.7348 12.6529 8.99151 13.0152H6.68872ZM5.70143 11.0106C6.1523 10.6178 6.37707 10.0527 6.37707 9.31526V8.46377C6.1574 8.65637 5.7985 8.78435 5.29912 8.84389L4.05639 8.98834C3.44717 9.06056 3.01165 9.20249 2.74982 9.41409C2.48799 9.6257 2.35644 9.93104 2.35644 10.3302C2.35644 10.7293 2.4931 11.0398 2.7677 11.264C3.0423 11.4883 3.4344 11.5998 3.94656 11.5998C4.66691 11.5998 5.25059 11.4035 5.70143 11.0106Z" fill="#2A2F3D"/>
<path d="M20.0268 4.76515C20.7817 5.65972 21.1597 6.85079 21.1597 8.3371C21.1597 9.81201 20.7817 10.9967 20.0268 11.8913C19.2592 12.7858 18.2298 13.2332 16.9385 13.2332C15.6587 13.2332 14.6842 12.7554 14.015 11.8013V16.5694H11.7109V3.65897H13.9218V5.00083C14.6038 3.96181 15.609 3.44104 16.9372 3.44104C18.2298 3.44104 19.2592 3.88325 20.0268 4.76515ZM16.3894 11.3464C17.1443 11.3464 17.7419 11.074 18.18 10.5304C18.6066 9.99825 18.8199 9.24308 18.8199 8.26362C18.8199 7.30821 18.6091 6.5809 18.189 6.07913C17.7688 5.57736 17.1684 5.32648 16.3894 5.32648C15.6217 5.32648 15.0241 5.58623 14.5987 6.10574C14.1722 6.62525 13.9589 7.36903 13.9589 8.33584C13.9589 9.3153 14.1786 10.0578 14.6166 10.5659C15.0305 11.0867 15.6217 11.3464 16.3894 11.3464Z" fill="#2A2F3D"/>
<path d="M31.8693 4.76515C32.624 5.65972 33.0022 6.85079 33.0022 8.3371C33.0022 9.81201 32.624 10.9967 31.8693 11.8913C31.1017 12.7858 30.0723 13.2332 28.7809 13.2332C27.5012 13.2332 26.5268 12.7554 25.8575 11.8013V16.5694H23.5547V3.65897H25.7655V5.00083C26.4475 3.96181 27.4527 3.44104 28.7809 3.44104C30.0723 3.44104 31.1017 3.88325 31.8693 4.76515ZM28.2318 11.3464C28.9866 11.3464 29.5845 11.074 30.0224 10.5304C30.449 9.99825 30.6624 9.24308 30.6624 8.26362C30.6624 7.30821 30.4515 6.5809 30.0313 6.07913C29.6112 5.57736 29.011 5.32648 28.2318 5.32648C27.4642 5.32648 26.8665 5.58623 26.4411 6.10574C26.0146 6.62525 25.8013 7.36903 25.8013 8.33584C25.8013 9.3153 26.0209 10.0578 26.4591 10.5659C26.8729 11.0867 27.4642 11.3464 28.2318 11.3464Z" fill="#2A2F3D"/>
<path d="M35.0859 10.0413H37.3339C37.3952 10.6216 37.5867 11.0322 37.9099 11.2741C38.233 11.5162 38.7413 11.6366 39.4362 11.6366C40.6789 11.6366 41.3009 11.2615 41.3009 10.5127C41.3009 10.1744 41.1667 9.9146 40.8985 9.7334C40.6303 9.5522 40.1488 9.40142 39.4553 9.27977L38.3773 9.09858C36.3185 8.76026 35.2891 7.81755 35.2891 6.27043C35.2891 5.38853 35.63 4.69541 36.3122 4.19491C36.9941 3.69315 37.9572 3.44226 39.1999 3.44226C41.8922 3.44226 43.2818 4.50029 43.3673 6.61506H41.1923C41.168 6.05882 40.9917 5.66349 40.6623 5.4278C40.3327 5.19212 39.8461 5.07428 39.1999 5.07428C38.104 5.07428 37.5549 5.43667 37.5549 6.16271C37.5549 6.47696 37.6761 6.72151 37.9201 6.89637C38.1641 7.07123 38.5651 7.20806 39.1258 7.30437L40.3136 7.48556C41.4592 7.69084 42.2907 8.01775 42.8079 8.46502C43.3253 8.91232 43.5846 9.53446 43.5846 10.3328C43.5846 11.2755 43.2192 12.0002 42.4874 12.5083C41.7568 13.0164 40.7274 13.2698 39.3991 13.2698C36.6455 13.2686 35.2073 12.1929 35.0859 10.0413Z" fill="#2A2F3D"/>
<path d="M59.3433 4.34828C59.922 4.95269 60.2118 5.7801 60.2118 6.83178V13.014H57.909V7.19418C57.909 6.00943 57.3662 5.4177 56.2819 5.4177C55.6968 5.4177 55.2256 5.62677 54.8654 6.04365C54.5065 6.46053 54.3265 7.06746 54.3265 7.86574V13.0152H52.0416V7.19418C52.0416 6.00943 51.4936 5.4177 50.3965 5.4177C49.8243 5.4177 49.3581 5.62677 48.998 6.04365C48.6378 6.46053 48.459 7.06746 48.459 7.86574V13.0152H46.1562V3.65897H48.3861V5.00083C49.0311 3.96181 49.9277 3.44104 51.0721 3.44104C52.5103 3.44104 53.4848 4.02137 53.9968 5.18202C54.7032 4.02137 55.6777 3.44104 56.9204 3.44104C57.9575 3.44104 58.7647 3.74387 59.3433 4.34828Z" fill="#2A2F3D"/>
<path d="M74.9138 5.39998V10.4582C74.9138 10.761 74.9956 10.9727 75.1604 11.093C75.3251 11.2135 75.6024 11.2743 75.9918 11.2743H77.6738V13.0152C77.1745 13.0633 75.8756 13.0875 75.5716 13.0875C74.5486 13.0875 73.8026 12.8974 73.3326 12.516C72.864 12.1347 72.629 11.5277 72.629 10.6939V5.39998H70.4922V3.65899H72.6303V0.536865H74.9151V3.66026H77.8617V5.39998H74.9138Z" fill="#2A2F3D"/>
<path d="M88.1555 4.32034C88.7468 4.90701 89.0419 5.73694 89.0419 6.81398V13.0151H86.7391V7.19411C86.7391 6.00938 86.1477 5.41765 84.9664 5.41765C84.3813 5.41765 83.8846 5.62545 83.4771 6.04359C83.0697 6.46046 82.8653 7.03699 82.8653 7.77444V13.0139H80.5625V0.535522H82.8653V4.90955C83.5844 3.93007 84.541 3.44098 85.7339 3.44098C86.757 3.44098 87.5641 3.73495 88.1555 4.32034Z" fill="#2A2F3D"/>
<path d="M99.89 14.3558H90.8984V16.0968H99.89V14.3558Z" fill="#FF6D2D"/>
<path d="M67.2182 11.2742V3.65894H62.375V5.39993H64.9155V11.2742H62.375V13.0152H69.7585V11.2742H67.2182Z" fill="#2A2F3D"/>
</g>
<defs>
<clipPath id="clip0_1_3504">
<rect width="100" height="16.5829" fill="white"/>
</clipPath>
</defs>
</svg>

<svg xmlns="http://www.w3.org/2000/svg" width="376.471" height="64" fill="none" viewBox="0 0 100 17"><g clip-path="url(#a)"><path fill="#2A2F3D" d="M65.148 2.173a1.185 1.185 0 0 1-.375-.889c0-.35.126-.65.375-.897.249-.248.551-.371.904-.371.354 0 .653.124.895.371.244.249.365.548.365.897 0 .351-.125.647-.374.889-.25.242-.545.362-.886.362a1.25 1.25 0 0 1-.904-.362ZM6.689 13.015c-.11-.194-.196-.574-.256-1.142-.633.907-1.645 1.36-3.033 1.36-1.036 0-1.861-.248-2.477-.744C.308 11.993 0 11.305 0 10.421c0-1.704 1.206-2.677 3.618-2.918l1.426-.126c.475-.061.816-.173 1.023-.336.207-.164.31-.408.31-.734 0-.399-.13-.692-.392-.88-.262-.187-.704-.28-1.326-.28-.67 0-1.15.111-1.443.335-.292.223-.462.607-.512 1.15H.438c.134-2.127 1.548-3.19 4.24-3.19 2.62 0 3.93.937 3.93 2.81v4.987c0 .822.127 1.414.384 1.776H6.689ZM5.7 11.011c.451-.393.676-.958.676-1.696v-.851c-.22.192-.579.32-1.078.38l-1.243.144c-.609.073-1.044.214-1.306.426s-.394.517-.394.916c0 .4.137.71.412.934.274.224.666.336 1.179.336.72 0 1.304-.197 1.754-.59ZM20.027 4.765c.755.895 1.133 2.086 1.133 3.572 0 1.475-.378 2.66-1.133 3.554-.768.895-1.797 1.342-3.088 1.342-1.28 0-2.255-.478-2.924-1.432v4.768h-2.304V3.66h2.21v1.342c.683-1.04 1.688-1.56 3.016-1.56 1.293 0 2.322.442 3.09 1.324Zm-3.638 6.581c.755 0 1.353-.272 1.791-.816.427-.532.64-1.287.64-2.266 0-.956-.21-1.683-.631-2.185-.42-.502-1.02-.753-1.8-.753-.767 0-1.365.26-1.79.78-.427.52-.64 1.263-.64 2.23 0 .98.22 1.722.658 2.23.413.52 1.005.78 1.772.78ZM31.87 4.765c.754.895 1.132 2.086 1.132 3.572 0 1.475-.378 2.66-1.133 3.554-.767.895-1.797 1.342-3.088 1.342-1.28 0-2.254-.478-2.923-1.432v4.768h-2.303V3.66h2.21v1.342c.683-1.04 1.688-1.56 3.016-1.56 1.291 0 2.32.442 3.088 1.324Zm-3.638 6.581c.755 0 1.352-.272 1.79-.816.427-.532.64-1.287.64-2.266 0-.956-.21-1.683-.63-2.185-.42-.502-1.021-.753-1.8-.753-.768 0-1.366.26-1.79.78-.427.52-.64 1.263-.64 2.23 0 .98.219 1.722.657 2.23.414.52 1.005.78 1.773.78ZM35.086 10.041h2.248c.061.58.253.991.576 1.233.323.242.831.363 1.526.363 1.243 0 1.865-.376 1.865-1.124 0-.339-.134-.598-.403-.78-.268-.18-.75-.332-1.443-.453l-1.078-.181C36.318 8.76 35.29 7.818 35.29 6.27c0-.881.341-1.575 1.023-2.075.682-.502 1.645-.753 2.888-.753 2.692 0 4.082 1.058 4.167 3.173h-2.175c-.024-.556-.2-.952-.53-1.187-.33-.236-.816-.354-1.462-.354-1.096 0-1.645.363-1.645 1.089a.85.85 0 0 0 .365.733c.244.175.645.312 1.206.408l1.188.182c1.145.205 1.977.532 2.494.979.517.447.777 1.07.777 1.868 0 .942-.366 1.667-1.098 2.175-.73.508-1.76.762-3.088.762-2.754-.001-4.192-1.077-4.313-3.229ZM59.343 4.348c.579.605.869 1.432.869 2.484v6.182h-2.303v-5.82c0-1.185-.543-1.776-1.627-1.776-.585 0-1.056.209-1.417.626-.358.417-.538 1.023-.538 1.822v5.15h-2.285V7.193c0-1.185-.548-1.776-1.645-1.776-.573 0-1.039.209-1.399.626-.36.417-.539 1.023-.539 1.822v5.15h-2.303V3.658h2.23v1.342c.645-1.04 1.542-1.56 2.686-1.56 1.438 0 2.413.58 2.925 1.741.706-1.16 1.68-1.741 2.923-1.741 1.038 0 1.845.303 2.423.907ZM74.914 5.4v5.058c0 .303.082.515.246.635.165.12.442.181.832.181h1.682v1.741c-.5.048-1.798.072-2.102.072-1.023 0-1.77-.19-2.24-.571-.468-.381-.703-.988-.703-1.822V5.4h-2.137V3.659h2.138V.537h2.285V3.66h2.947V5.4h-2.948ZM88.156 4.32c.59.587.886 1.417.886 2.494v6.201h-2.303v-5.82c0-1.186-.591-1.777-1.773-1.777a2 2 0 0 0-1.489.626c-.407.416-.612.993-.612 1.73v5.24h-2.302V.536h2.302V4.91c.72-.98 1.676-1.469 2.869-1.469 1.023 0 1.83.294 2.422.88Z"/><path fill="#FF6D2D" d="M99.89 14.356h-8.992v1.74h8.992v-1.74Z"/><path fill="#2A2F3D" d="M67.218 11.274V3.66h-4.843v1.74h2.54v5.875h-2.54v1.741h7.383v-1.74h-2.54Z"/></g><defs><clipPath id="a"><path fill="#fff" d="M0 0h100v16.583H0z"/></clipPath></defs></svg>
